X: 05048
T: KEENE'S JIG
C: Bob McQuillen 24 Feb 81
B: Bob's Note Book 5 #48
%R: jig
Z: 2021 John Chambers <jc:trillian.mit.edu>
M: 6/8
L: 1/8
K: D
A, \
| DFA AGF | GAB BAG | FAd dcd | e2c Ade || fdd edc | dcB A2A | Bcd AGF | FED CDE |
| DFA AGF | GAB BAG | FAd dcd | e2d cde || fdd ede | fdf edB | ABd cBc | edd d2 |]
[| A \
| FAA BAA | dcd BAG | FGF EDE | FDD D2A || FAA BAA | dcd BAA | def ede | fdd d2e |
| fdd edB | ABA Ade | fdd efg | afd edc || Bdd Adf | edB AFA | def afe | fdd d2 |]
%%begintext align
%% Sometimes April Limber, Pete Colby,
%% Rich Blazej (caller from Brattleboro, Vt.) and I play at Keene State
%% College for Ken Wilson's dances. Ken has the "Yankee Lady
%% Record Shop" in Keene, and he's also calling dances on
%% his own.
%%endtext

%%sep 1 1 500

%%sep 1 1 500

